X: 10604
T: FRENCH MUSE
C:
%R: reel
B: Elias Howe "The Musician's Companion" Part 1 1842 p.60 #4
S: http://imslp.org/wiki/The_Musician's_Companion_(Howe,_Elias)
Z: 2015 John Chambers <jc:trillian.mit.edu>
M: C|
L: 1/8
K: D
% - - - - - - - - - - - - - - - - - - - - - - - - -
|:\
G,2A2 AcBA | FADA FADA | BABc dcBA | AFAB cAFD |\
G,2A2 AcBA | FADA FADA | fdff edcB | A2D2 D2 :|
|:\
ABcd e2e2 | fefg a2a2 | B2BA FEFD | B2BA FEFD |\
ABcd e2e2 | fefg a2a2 | B2BA FEFD | A2D2 D2 :|
% - - - - - - - - - - - - - - - - - - - - - - - - -
%%begintext align right
%% To play the "FRENCH MUSE" with good effect
%% (upon the violin,)
%% tune the D string a fourth below the A,
%% and the G a fifth below the D.
%%endtext


